source/frontend/assets/images/icon/facebook.svg

<svg width="32" height="32" viewBox="0 0 32 32" fill="none" xmlns="http://www.w3.org/2000/svg">
<path d="M26.68 4H5.32C4.96991 4 4.63417 4.13907 4.38662 4.38662C4.13907 4.63417 4 4.96991 4 5.32V26.68C4 27.0301 4.13907 27.3658 4.38662 27.6134C4.63417 27.8609 4.96991 28 5.32 28H16.816V18.7H13.696V15.1H16.816V12.4C16.7514 11.7661 16.8262 11.1258 17.0353 10.5238C17.2443 9.92194 17.5825 9.37305 18.0262 8.91569C18.4698 8.45833 19.0081 8.10357 19.6034 7.87629C20.1987 7.649 20.8364 7.5547 21.472 7.6C22.406 7.59425 23.3395 7.64233 24.268 7.744V10.984H22.36C20.848 10.984 20.56 11.704 20.56 12.748V15.064H24.16L23.692 18.664H20.56V28H26.68C26.8533 28 27.025 27.9659 27.1851 27.8995C27.3453 27.8332 27.4908 27.736 27.6134 27.6134C27.736 27.4908 27.8332 27.3453 27.8995 27.1851C27.9659 27.025 28 26.8533 28 26.68V5.32C28 5.14666 27.9659 4.97501 27.8995 4.81486C27.8332 4.65471 27.736 4.50919 27.6134 4.38662C27.4908 4.26405 27.3453 4.16682 27.1851 4.10048C27.025 4.03414 26.8533 4 26.68 4Z" fill="#77889A"/>
</svg>

<svg xmlns="http://www.w3.org/2000/svg" width="32" height="32" viewBox="0 0 32 32">
  <path d="M26.68 4H5.32A1.32 1.32 0 0 0 4 5.32v21.36A1.32 1.32 0 0 0 5.32 28h11.496v-9.3h-3.12v-3.6h3.12v-2.7a4.368 4.368 0 0 1 4.656-4.8c.934-.006 1.867.042 2.796.144v3.24H22.36c-1.512 0-1.8.72-1.8 1.764v2.316h3.6l-.468 3.6H20.56V28h6.12A1.319 1.319 0 0 0 28 26.68V5.32A1.319 1.319 0 0 0 26.68 4Z"/>
</svg>
